packages/ui-solid/icons/sortalphabetically_28.svg

<svg width="28" height="28" viewBox="0 0 28 28" fill="none" xmlns="http://www.w3.org/2000/svg">
<path fill-rule="evenodd" clip-rule="evenodd" d="M3.10001 5.91688C3.10001 5.41982 3.50295 5.01688 4.00001 5.01688H22.9949C23.4919 5.01688 23.8949 5.41982 23.8949 5.91688C23.8949 6.41393 23.4919 6.81688 22.9949 6.81688H4.00001C3.50295 6.81688 3.10001 6.41393 3.10001 5.91688ZM3.10001 11.343C3.10001 10.8459 3.50295 10.443 4.00001 10.443H18.5255C19.0226 10.443 19.4255 10.8459 19.4255 11.343C19.4255 11.84 19.0226 12.243 18.5255 12.243H4.00001C3.50295 12.243 3.10001 11.84 3.10001 11.343ZM3.10001 16.7691C3.10001 16.2721 3.50295 15.8691 4.00001 15.8691H14.4972C14.9942 15.8691 15.3972 16.2721 15.3972 16.7691C15.3972 17.2662 14.9942 17.6691 14.4972 17.6691H4.00001C3.50295 17.6691 3.10001 17.2662 3.10001 16.7691Z" fill="#007AFF"/>
<path fill-rule="evenodd" clip-rule="evenodd" d="M20.4448 14.9399C20.8485 14.0294 22.1406 14.0294 22.5442 14.9399L25.8164 22.3206C26.0178 22.775 25.8128 23.3066 25.3584 23.5081C24.9039 23.7095 24.3723 23.5045 24.1708 23.0501L23.4084 21.3303H19.5807L18.8182 23.0501C18.6168 23.5045 18.0851 23.7095 17.6307 23.5081C17.1763 23.3066 16.9712 22.775 17.1727 22.3206L20.4448 14.9399ZM20.3787 19.5303H22.6104L21.4945 17.0134L20.3787 19.5303Z" fill="#007AFF"/>
</svg>

<svg xmlns="http://www.w3.org/2000/svg" width="28" height="28" fill="none"><path fill="currentColor" fill-rule="evenodd" d="M3.1 5.917a.9.9 0 0 1 .9-.9h18.995a.9.9 0 0 1 0 1.8H4a.9.9 0 0 1-.9-.9m0 5.426a.9.9 0 0 1 .9-.9h14.526a.9.9 0 1 1 0 1.8H4a.9.9 0 0 1-.9-.9m0 5.426a.9.9 0 0 1 .9-.9h10.497a.9.9 0 0 1 0 1.8H4a.9.9 0 0 1-.9-.9m17.345-1.829c.404-.91 1.696-.91 2.1 0l3.271 7.38a.9.9 0 0 1-1.645.73l-.763-1.72h-3.827l-.763 1.72a.9.9 0 0 1-1.645-.73zm-.066 4.59h2.231l-1.116-2.517z" clip-rule="evenodd"/></svg>
